X: 16661
T: Hanter Dro
R: three-two
M: 3/2
K: Eminor
BB/=c/ BA G>A|BA/G/ FA GE|BB/=c/ BA G>A|BA/G/ FD E2:|
EF/G/ AA B2|AB/=c/ ed/c/ B2|GA/B/ =cB A2|AB/A/ GF GF|
EF/G/ AA B2|AB/=c/ ed/=c/ B2|GA/B/ =cB A2|AB/A/ GF E2|

